X:1
T:Title
%%score ( 1 2 3 ) 4
L:1/8
Q:1/4=87
M:4/4
K:Bb
V:1 treble nm="Grand Piano, Soprano"
V:2 treble 
V:3 treble 
V:4 bass nm="Choir Pad, He Arose Today"
V:1
 [DF][DF]- [DF]/[CE]/[B,D]- [B,D]/[DF]/ [DB]3 | [FB][Gc]- [Gc]/[GB]/[FA]- [FA]/[EG]/ [DF]3 | %2
w: By~Ira~Bishop~Wilson * * * * * * *||
 [Fd][Fc]- [Fc]/[Fd]/[Fc]- [Fc]/[=EB]/[FA]- [FA]/[FB]/[Fc]- | [Fc]/F/ [FA]2 [=EG]- [EG] F3 | %4
w: ||
 [EF][DF]- [DF]/[CE]/[B,D]- [B,D]/[DF]/ [DB]3 | z8 | z8 | z8 | z8 | z8 | z A3 z4 | z8 | z8 | z8 | %14
w: ||||||||||
 z8 | z8 |] %16
w: ||
V:2
 x8 | x8 | x8 | x8 | x8 | [FB][Gc]- [Gc]/[GB]/[FA]- [FA]/[EG]/ [DF]2 F- | %6
 F[EG]- [EG]/[EA]/[FB]- [FB]/[Ge]/ [Fd]2 [Ec]- | [Ec] [DB]3- [DB]2 z/ [Fd]/[Ge]- | %8
 [Ge]/[Fd]/[Fd]- [Fd]/[Ec]/[EF]- [EF]2 z/ [Fc]/[Fd]- | [Fd]/[Ec]/ [DB]3- [DB]2- [DB]/[B,D]/[DF]- | %10
 [DF]/[DB]/ .E3 G [EA]2 [EG]- | [EG] [DF]3- [DF]2- [DF]/[Fd]/[Ge]- | %12
 [Ge]/[Fd]/[Fd]- [Fd]/[Ec]/[EF]- [EF]2- [EF]/[Ec]/[Fd]- | %13
 [Fd]/[Ec]/[Ec]- [Ec]/[DB]/[DF]- [DF]2- [DF]/ z/ F- | %14
 F[EG]- [EG]/[EA]/[FB]- [FB]/[Ge]/ [Fd]2 [Ec]- | [Ec] [DB]3- [DB]2- [DB]/ z/ z |] %16
V:3
 x8 | x8 | x8 | x8 | x8 | x8 | x8 | x8 | x8 | x8 | z2 z E- E z z2 | x8 | x8 | x8 | x8 | x8 |] %16
V:4
 [B,,B,][B,,B,]- [B,,B,]/[B,,B,]/[B,,F,]- [B,,F,]/[B,,F,]/ [B,,F,]3 | %1
 [D,B,][E,B,]- [E,B,]/[E,B,]/[E,B,]- [E,B,]/[G,B,]/ B,3 | %2
 B,[A,C]- [A,C]/B,/[A,C]- [A,C]/[G,C]/[F,C]- [F,C]/[G,A,]/[F,A,]- | %3
 [F,A,]/[D,A,]/ [C,C]2 [C,B,]- [C,B,] [F,A,]3 | %4
 [F,A,][B,,B,]- [B,,B,]/[B,,B,]/[B,,F,]- [B,,F,]/[B,,F,]/ [B,,F,]3 | %5
 [D,B,][E,B,]- [E,B,]/[E,B,]/[E,B,]- [E,B,]/[G,B,]/ B,2 [D,B,]- | %6
 [D,B,][E,B,]- [E,B,]/[C,F,]/[D,B,]- [D,B,]/[E,B,]/ [F,B,]2 [F,A,]- | %7
 [F,A,] [B,,B,]3- [B,,B,]2 z2 | z [A,,F,]2 [F,,F,]- [F,,F,] [A,,F,]2 [F,,F,]- | %9
 [F,,F,] [B,,F,]2 [F,,F,]- [F,,F,] [B,,F,]2 [F,,F,]- | %10
 [F,,F,] [C,F,]2 [F,,F,]- [F,,F,] [C,F,]2 [F,,F,]- | [F,,F,][B,,F,]- [B,,F,]/B,,/D,- D,/F,/ .B,3 | %12
 z [A,,F,]2 [F,,F,]- [F,,F,] [A,,F,]2 [F,,F,]- | %13
 [F,,F,] [B,,F,]2 [F,,F,]- [F,,F,] [B,,F,]2 [D,B,]- | %14
 [D,B,][E,B,]- [E,B,]/[C,F,]/[D,B,]- [D,B,]/[E,B,]/ [F,B,]2 [F,A,]- | %15
 [F,A,] [B,,B,]3- [B,,B,]2- [B,,B,]/ z/ z |] %16

